X:1
T:Endure to the End
T:Endure to the End
T:John Robson Sweney
T:Frances Jane (Fanny) Crosby, 1890
T:Public Domain Courtesy of the Cyber Hymnal™
C:John Robson Sweney
Z:Public Domain
Z:Courtesy of the Cyber Hymnal™
%%score ( 1 2 ) ( 3 4 )
L:1/8
Q:1/4=107
M:4/4
K:Eb
V:1 treble 
V:2 treble 
V:3 bass 
V:4 bass 
V:1
 (EF) | [EG]2 [EG]2 [EG]2 [EB]2 | [EB]2 [EA]2 [EA]2 ([EG][DF]) | E2 E2 E2 [EG]2 | %4
w: 1.~We *|can- not fold our|hands at ease, And *|look for Heav’n at|
w: 2.~We *|can- not hope to|win the prize, Un- *|less the race we|
w: 3.~We *|can- not slum- ber|at our post, Nor *|lay our ar- mor|
w: 4.~Then *|let the cross be|all our boast, And *|Je- sus all our|
 [DF]6 ([DF][EG]) | [FA]2 [FA]2 [EG]2 [EG]2 | [^Fc]2 [Fc]2 [GB]2 [Ge]2 | [Fd]3 [Fc] [FB]2 [E=A]2 | %8
w: last; We *|can- not shout the|vic- tory won Un-|til the war is|
w: run; Nor *|reap the fruits of|end- less joy If|we no work have|
w: down, And *|on- ly they who|bear the cross Can|ev- er wear the|
w: song, Till *|in His robe of|right- eous- ness We|join the ran- somed|
 [DB]6 z2 ||"^Refrain" [EB]2 [EG]>[FA] [GB]2 [Ge]>[Ge] | [Ge]2 [EG]>[Ac] [GB]2 E>[DF] | %11
w: past.|||
w: done.|Bless- èd are they that en-|dure to the end, For with|
w: crown.|||
w: throng.|||
 [EG]2 [EB]2 [DA]2 [EG]2 | [DF]6 [DF]>[EG] | [FA]2 [FA]>[FA] [EG]2 [EG]>[EG] | %14
w: |||
w: them it shall be|well; They shall|eat of the fruit of the|
w: |||
w: |||
 [^Fc]2 [Fc]2 !fermata![GB]2 [Ge]>[Ge] | [Ge]2 [EG]>[FA] [EG]2 [DF]2 | E6 |] %17
w: |||
w: tree of life, And with|Je- sus for- ev- er|dwell.|
w: |||
w: |||
V:2
 E2 | x8 | x8 | E2 E2 E2 x2 | x8 | x8 | x8 | x8 | x8 || x8 | x6 E3/2 x/ | x8 | x8 | x8 | x8 | x8 | %16
 E6 |] %17
V:3
 (G,A,) | [E,B,]2 [E,B,]2 [E,B,]2 [E,_D]2 | [E,C]2 [E,C]2 [E,C]2 (B,A,) | %3
 [E,G,]2 [E,G,]2 [G,B,]2 [E,B,]2 | [B,,B,]6 [B,,B,]2 | [B,,B,]2 [B,,B,]2 [E,B,]2 [E,B,]2 | %6
 [E,=A,]2 [E,A,]2 [E,B,]2 [E,B,]2 | [F,B,]3 [F,E] [F,D]2 [F,C]2 | (B,4 A,2) z2 || %9
 [E,G,]2 [E,B,]>[E,B,] [E,E]2 [E,B,]>[E,B,] | [E,B,]2 [E,B,]>[E,E] [E,E]2 [E,G,]>[E,A,] | %11
 [E,B,]2 [G,B,]2 [F,B,]2 [E,B,]2 | [B,,B,]6 [B,,B,]>[B,,B,] | %13
 [B,,B,]2 [B,,B,]>[B,,B,] [E,B,]2 [E,B,]>[E,B,] | [E,=A,]2 [E,A,]2 !fermata![E,B,]2 [E,B,]>[E,B,] | %15
 [E,B,]2 [E,B,]>[A,,C] [B,,B,]2 [B,,A,]2 | [E,G,]6 |] %17
V:4
 E,2 | x8 | x6 E,2 | x8 | x8 | x8 | x8 | x8 | B,,6 x2 || x8 | x8 | x8 | x8 | x8 | x8 | x8 | x6 |] %17

